X:225
%%etbk:tnset id:70,pos:1,rep:3x,ant:
%%etbk:wsite http://www.thesession.org/tunes/display/1831
%%etbk:pldat 2014-04-06T15:58,2014-02-26T17:51,2014-02-18T17:39,2013-11-19T15:14,2013-09-02T18:02,2013-05-06T18:03,2013-05-05T15:14
T: Maid On The Green, The
Z: Piano Box Version by Martin Fleischmann
H: Created 2013-02-19 /  Last Modified 2013-05-05
M: 6/8
L: 1/8
R: jig
K: Gmaj
|: "G"!5!gfg !3!ee!2!d | !1!B!5!ee !4!d!3!B!2!A | !3!B!1!GG !4!d!1!GG | "D"!2!B!1!AA !1!A!2!B!3!d |
"G"!5!gfg !3!eed | !1!B!5!ee !4!d!3!B!2!A | !3!B!1!GG !4!d!3!B!2!A |1 !3!B!1!G!2!F !1!G3:|2 BGF !1!G2!2!f||
|: "G"!3!ggg !4!a!2!f!1!d | !3!ggg !4!a2!2!f | !3!ggg !1!e!4!ag | "D"!3!f!1!dd d!3!g!4!a |
"G"!5!bgb !4!af!4!a | !3!g3 !1!e2!2!d | !1!B!3!ee !2!d!1!B!2!A |1 !3!B!1!GG G2!2!f|2 !3!B!1!GG G3:|


